svgs/solid/flux-capacitor.svg

<svg xmlns="http://www.w3.org/2000/svg" viewBox="0 0 448 512"><!--! Font Awesome Pro 6.4.2 by @fontawesome - https://fontawesome.com License - https://fontawesome.com/license (Commercial License) Copyright 2023 Fonticons, Inc. --><path d="M0 96C0 60.7 28.7 32 64 32H384c35.3 0 64 28.7 64 64V416c0 35.3-28.7 64-64 64H64c-35.3 0-64-28.7-64-64V96zM148.7 237.3l-49-49c-15.6-15.6-15.6-40.9 0-56.6s40.9-15.6 56.6 0l49 49c1.8-6.6 2.7-13.6 2.7-20.7c0-44.2-35.8-80-80-80s-80 35.8-80 80s35.8 80 80 80c7.2 0 14.1-.9 20.7-2.7zM184 282.7c-23.9 13.8-40 39.7-40 69.3c0 44.2 35.8 80 80 80s80-35.8 80-80c0-29.6-16.1-55.5-40-69.3V352c0 22.1-17.9 40-40 40s-40-17.9-40-40V282.7zm115.3-45.4c6.6 1.8 13.6 2.7 20.7 2.7c44.2 0 80-35.8 80-80s-35.8-80-80-80s-80 35.8-80 80c0 7.2 .9 14.1 2.7 20.7l49-49c15.6-15.6 40.9-15.6 56.6 0s15.6 40.9 0 56.6l-49 49zm-160-88.6c-6.2-6.2-16.4-6.2-22.6 0s-6.2 16.4 0 22.6L208 262.6V352c0 8.8 7.2 16 16 16s16-7.2 16-16V262.6l91.3-91.3c6.2-6.2 6.2-16.4 0-22.6s-16.4-6.2-22.6 0L224 233.4l-84.7-84.7z"/></svg>

<svg xmlns="http://www.w3.org/2000/svg" viewBox="0 0 448 512"><!--! Font Awesome Pro 6.1.1 by @fontawesome - https://fontawesome.com License - https://fontawesome.com/license (Commercial License) Copyright 2022 Fonticons, Inc. --><path d="M0 96C0 60.65 28.65 32 64 32H384C419.3 32 448 60.65 448 96V416C448 451.3 419.3 480 384 480H64C28.65 480 0 451.3 0 416V96zM99.72 188.3C84.09 172.7 84.09 147.3 99.72 131.7C115.3 116.1 140.7 116.1 156.3 131.7L205.3 180.7C207.1 174.1 208 167.2 208 160C208 115.8 172.2 80 128 80C83.82 80 48 115.8 48 160C48 204.2 83.82 240 128 240C135.2 240 142.1 239.1 148.7 237.3L99.72 188.3zM184 282.7C160.1 296.5 144 322.4 144 352C144 396.2 179.8 432 224 432C268.2 432 304 396.2 304 352C304 322.4 287.9 296.5 264 282.7V352C264 374.1 246.1 392 224 392C201.9 392 184 374.1 184 352V282.7zM299.3 237.3C305.9 239.1 312.8 240 320 240C364.2 240 400 204.2 400 160C400 115.8 364.2 80 320 80C275.8 80 240 115.8 240 160C240 167.2 240.9 174.1 242.7 180.7L291.7 131.7C307.3 116.1 332.7 116.1 348.3 131.7C363.9 147.3 363.9 172.7 348.3 188.3L299.3 237.3zM139.3 148.7C133.1 142.4 122.9 142.4 116.7 148.7C110.4 154.9 110.4 165.1 116.7 171.3L207.1 262.6V352C207.1 360.8 215.2 368 223.1 368C232.8 368 240 360.8 240 352V262.6L331.3 171.3C337.6 165.1 337.6 154.9 331.3 148.7C325.1 142.4 314.9 142.4 308.7 148.7L223.1 233.4L139.3 148.7z"/></svg>
